Origami/64x64/apps/keurocalc.svg

<svg width="64" height="64" version="1" xmlns="http://www.w3.org/2000/svg">
 <path d="M 59.958,31.828 A 28,28 0 0 1 32,59 28,28 0 0 1 4.044,32.172 28,28 0 0 0 4,33 28,28 0 0 0 32,61 28,28 0 0 0 60,33 28,28 0 0 0 59.958,31.828 Z" style="opacity:.2"/>
 <circle cx="32" cy="32" r="28" style="fill:#578cff"/>
 <path d="M 31.998047 4 A 28 28 0 0 0 4 32 A 28 28 0 0 0 4.0175781 32.492188 A 28 28 0 0 1 31.998047 5 L 32 5 A 28 28 0 0 1 59.972656 32.488281 A 28 28 0 0 0 59.998047 32 A 28 28 0 0 0 32 4 L 31.998047 4 z" style="fill:#ffffff;opacity:.2"/>
 <path d="m34 17a16 16 0 0 0 -14.8242 10h-3.1758l-2 4h4.1446a16 16 0 0 0 -0.1446 2l-2 4h2.5312a16 16 0 0 0 15.4688 12 16 16 0 0 0 12.488 -6h-5.866a12 12 0 0 1 -6.622 2 12 12 0 0 1 -11.3 -8h13.3l2-4h-16a12 12 0 0 1 0.18 -2h15.82l2-4h-16.378a12 12 0 0 1 10.378 -6 12 12 0 0 1 6.618 2h5.854a16 16 0 0 0 -12.472 -6z" style="opacity:.2"/>
 <path d="m34 16a16 16 0 0 0 -14.8242 10h-3.1758l-2 4h4.1446a16 16 0 0 0 -0.1446 2l-2 4h2.5312a16 16 0 0 0 15.4688 12 16 16 0 0 0 12.488 -6h-5.866a12 12 0 0 1 -6.622 2 12 12 0 0 1 -11.3 -8h13.3l2-4h-16a12 12 0 0 1 0.18 -2h15.82l2-4h-16.378a12 12 0 0 1 10.378 -6 12 12 0 0 1 6.618 2h5.854a16 16 0 0 0 -12.472 -6z" style="fill:#ffff70"/>
</svg>

<svg xmlns="http://www.w3.org/2000/svg" width="64" height="64" version="1">
 <path style="opacity:0.2" d="M 59.958,31.828 A 28,28 0 0 1 32,59 28,28 0 0 1 4.044,32.172 28,28 0 0 0 4,33 28,28 0 0 0 32,61 28,28 0 0 0 60,33 28,28 0 0 0 59.958,31.828 Z"/>
 <circle style="fill:#578cff" cx="32" cy="32" r="28"/>
 <path style="opacity:0.2;fill:#ffffff" d="M 31.998047 4 A 28 28 0 0 0 4 32 A 28 28 0 0 0 4.0175781 32.492188 A 28 28 0 0 1 31.998047 5 L 32 5 A 28 28 0 0 1 59.972656 32.488281 A 28 28 0 0 0 59.998047 32 A 28 28 0 0 0 32 4 L 31.998047 4 z"/>
 <path style="opacity:0.2" d="M 34,17 A 16,16 0 0 0 19.1758,27 L 16,27 l -2,4 4.1446,0 A 16,16 0 0 0 18,33 l -2,4 2.5312,0 A 16,16 0 0 0 34,49 16,16 0 0 0 46.488,43 l -5.866,0 A 12,12 0 0 1 34,45 12,12 0 0 1 22.7,37 l 13.3,0 2,-4 -16,0 a 12,12 0 0 1 0.18,-2 L 38,31 40,27 23.622,27 A 12,12 0 0 1 34,21 a 12,12 0 0 1 6.618,2 l 5.854,0 A 16,16 0 0 0 34,17 Z"/>
 <path style="fill:#ffff70" d="M 34,16 A 16,16 0 0 0 19.1758,26 L 16,26 l -2,4 4.1446,0 A 16,16 0 0 0 18,32 l -2,4 2.5312,0 A 16,16 0 0 0 34,48 16,16 0 0 0 46.488,42 l -5.866,0 A 12,12 0 0 1 34,44 12,12 0 0 1 22.7,36 l 13.3,0 2,-4 -16,0 a 12,12 0 0 1 0.18,-2 L 38,30 40,26 23.622,26 A 12,12 0 0 1 34,20 a 12,12 0 0 1 6.618,2 l 5.854,0 A 16,16 0 0 0 34,16 Z"/>
</svg>
